X: 11721
Q: "Allegro."
M: 6/8
L: 1/8
K: D
!pp!A |\
dA(f e)cA | BF(d c)AF | GD(B A)FD | CEE E2A |\
dA(f e)cA | BF(d c)AF | GD(B A)dF | {F}E3 D2!f!A |\
dA(f e)aA | BF(d c)fF | GD(B A)FD | CEE E2A |
dA(f e)aA | BF(d c)fF | GD(B A)dD | {F}E3 D3 |!p!\
(g2e) (f2d) | (c2A) (d2f) | (g2e) (f2d) | cee e2e |\
(g2e) (f2d) | (c2A) (d2f) | (g2e) f2d | cee e2A |
dA(f e)cA | BF(d c)AF | GD(B A)FD | CEE E2A |\
!f!dA(f e)aA | BF(d c)fF | GD(B A)dD | {F}TE3 D3 |\
fdB ecA | ^GBd cBA | fdB ecA | ^GBd cBA |
"_>"a2e fdB | "_>"a2e fdB | "_>"a2e fBd | {c}TB3 A3 |\
!p!cBc d2c | BAB c2z | a^ga b2a | ^gfg a2z |\
fa^g fff | fa^g fff | fcf dcB | AB^G F3 |
fa^g fff | fa^g fff | fcf {e}dcB | AB^G F2z |\
"_>"a3- a2f | b2f g2e | !p!g3- g2e | a2e f2d |\
(g2e) (f2d) | (c2A) (d2f) | (g2e) (f2d) | cee e3 |\
(g2e) (=f2d) | (c2A) (d2=f) | (g2e) (=f2d) | caa a2!pp!A |\
dAf ecA | BFd cAF | GDB AFD | CEE E2A |
dAf ecA | BFd cAF | GDB AdD | {F}E3 D2!f!A |\
dAf eaA | BFd cfF | GDB AFD | CEE E2A |\
dAf eaA | BFd cfF | GDB AdD | E3 D3 |!pp!
(g2e) (f2d) | (c2A) (d2f) | (g2e) (f2d) | cee e2e |\
(g2e) (f2d) | (c2A) (d2f) | (g2e) (f2d) | cee e2A |\
dAf ecA | BFd cAF | GDB AFD | CEE E2!f!A |
dBf eaA | BFd cfF | GDB AdD | E3 D3 |\
bae ad'd | {f}e3 f[d'd][d'd] | [d'd][d'd][d'd] [d'd][d'd][d'd] | [d'3d3] z2z |]



